X:1
T:Title
%%score ( 1 2 )
L:1/8
Q:1/4=120
M:none
K:G
V:1 treble nm="Midi_1"
V:2 treble 
V:1
"^Arthur Campbell Ainger" D4 D2 D2 E4"^God is working his purpose out" (G2 G2) | %1
w: God is * work- ing his|
w: |
w: What can we do to *|
w: |
w: All we can do is *|
 F6 E2 D4 (D2"^Millicent Douglas Kingham" D2) | E4 E2 A2 G4 F4 | G12 || (B2 B2) | %5
w: pur- pose out as *|year * suc- ceeds to|year,||
w: ||||
w: work God's work, to *|pro * sper and in-|crease|The *|
w: ||||
w: no- thing worth un- less|God * bless- es the|deed;||
 B4 (B2 B2) A4 G2 F2 | G4 F2 E2 ^D4 E2 F2 | G4 (A2 A2) B4 ^c2 c2 | d12 | D4 | A4 A2 G2 F4 D4 | %11
w: God is * work- ing his|pur- pose * out and the|time is * draw- ing *|near;||Near- er and near- er|
w: ||||||
w: bro- ther * hood of *|all man * kind, the *|reign of the Prince of *|Peace.||What can we do to|
w: ||||||
w: Vain- ly we hope for the|har- vest * tide till *|God gives * life to the|seed;|Yet|near- er and near- er|
 (B4 B2) A2 G4 G4 | e4 e2 d2 c4 B4 | c12 || B2 A2 | G4 G2 A2 B4 | %16
w: draws * the time, the|time that shall sure- ly|be,|When the|earth shall be filled|
w: |||||
w: hast- en the time, the|time that shall sure- ly|be,|When the|earth shall be filled|
w: |||||
w: draws * the time, the|time that shall sure- ly|be,|When the|earth shall be filled|
"^This edition by Andrew Sims 2011, words and music as in the New English Hymnal" c2 d2 | %17
w: with the|
w: |
w: |
w: |
w: |
 e4 e2 d2 c4 B2 A2 | d4 G4 G2 E2 F4 | G8 | %20
w: glo- ry of God as the|wa- ters co- ver the|sea.|
w: |||
w: |||
w: |||
w: |||
V:2
 D4 (D2 D2) E4 G2 G2 | F6 E2 D4 D2 D2 | (E4 E2) A2 G4 F4 | G12 || B2 B2 | B4 B2 B2 A4 (G2 F2) | %6
w: ||||||
w: From ut- most east to *|ut- most west where *|'er * man's foot hath|trod,|By the|mouth of * ma- ny *|
w: ||||||
w: March we * forth in the|strength of God with the|ban- ner of Christ un-|furled,|That the|light of the glor- ious *|
 G4 (F2 E2) ^D4 (E2 F2) | G4 A2 A2 B4 (^c2 c2) | d12 | D4 | A4 (A2 G2) F4 D4 | B4 B2 A2 G4 G4 | %12
w: ||||||
w: mess- en * gers goes *|forth the * voice of *|God.|"Give|ear to * me, ye|con * ti- nents, ye|
w: ||||||
w: gos- pel of truth may *|shine through- * out the *|world;||Fight we the fight with|sor- row and sin, to|
 e4 (e2 d2) c4 B4 | c12 || B2 A2 | G4 G2 A2 B4 | c2 d2 | e4 e2 d2 c4 B2 A2 | d4 G4 G2 E2 F4 | G8 | %20
w: ||||||||
w: isles, give * ear to|me,|That the|earth may be filled|||||
w: ||||||||
w: set their * cap- tives|free,|That the|earth may be filled|||||

